X:28
T:La Cati
M:3/8
L:1/8
N:Mouvt de bourr
N:La Bourre 4th edition 1929, page 42
Z:Steve Mansfield www.lesession.co.uk May 2012
K:Bb
|: F F F | B B B | c B c | d3 |
d c d | f e d | c e d |1 c3 :|
[2 c f | e2 d | c d e | d2 c | B2 d |
c2 B | A c B | A2 G | !fermata!F2 F | B2 c |
d f e | d2 B | c d e | c2 A |
B2 F | B c d | B c/ B/ A/ G/ | F B c |
B2 F | G2 c | B/ A/ G/ "rall."F/ G/ A/ | !fermata!B3 |]

